!!!OTL: Fenstergang (Band 1), S. 200
!!!id: P0844
**kern
*clefG2
*k[f#]
*G:
{16d
16d
=1
8g
16g
16b
16b
16a
=2
4b}
=3
{8a
=4
8b
8dd
16b
16a
=5
4b}
=6
{8a
=7
8b
16b
16b
8b
=8
16b
16b
16dd
16cc
8b}
=9
{8a
8a
8a
=10
16b
16b
16b
16a
8g}
=11
{16a
16a
16a
16g
8f#
=12
4g}
=13
{16g
16a
=14
8b
16b
16b
8b
=15
16b
16b
16dd
16cc
8b}
=16
{8a
8a
8a
=17
16b
16b
16b
16a
8g}
=18
{16b
16a
8g
8f#
=19
4g}
==
*-
!!!minrhy: 16
!!!meters: 3/8 ]  ZZ[8
!!!cut: Fenstergang (Band 1), S. 200
!!!reg: Lothringen
!!!trd: PINCK, Louis: Verklingende Weisen, Bd 1, Metz 1928
!!!rhy1: XX  X_XXXX  X__
!!!rhy2: X_  X_X_XX  X__
!!!key: P0844  16  G 3/8 ]  ZZ[8
!!!mod: SECHSTONSKALA DUR ?]  AMBITUS[8
!!!kad: 33311311
!!!akz: 13_33_33_23_21_33_23_31_
!!!fot: 'a__b__bv_c__d__bw_c__e__
!!!for: 'a__b__c__d__e__cv_d__f__
!!!fok: '/__^a_^a_\__\__^a_\__\__
!! PHRAS[GEMISCHTTAKTIG]
!!!fkt: Fenstergangslied, Liebe
!! LOTH VKL
!! PR[15] 2K[15] 2G[23] 3K[0] 3G[0] 4A[0] 4Ü[0] 5A[4] 6K[0] 6G[0]
!! 7K[0] 7G[0] 8A[0] MEHR[0] SI[42] ABS[48] SR[38] SP[4]
!! ST[10] 2k[10] 2g[23] 3k[8] 3g[2] 4d[0] 4ü[0] 5d[0] 6k[0] 6g[0]
!! 7k[0] 7g[0] 8d[0] mehr[0] si[44] dm[-2] sr[33] sp[10]
!! 1F[53] 2F[31] 3F[0] 4F[0] LF[0] 2P[16] 3P[0] 4P[0] TRI[0] DF[3] AB[49]
!! TF[0] U3K[0] U3[0] U4[0] U4Ü[0] U5[0] U6K[0] U6[0] U7K[0] U7[4]
!! N1[16] N2K[0] N2[12] N3K[24] N3[0] N4[20] N4Ü[0] N5[18] N6K[4] N6[0]
!!!n7k: 0] N7[0] O1[0] O2K[0] O2[0] O3K[0] O3[0] HÖ[0
